X: 08118
T: YARENSKI'S HORNPIPE
C: Bob McQuillen 27 Jan 91
B: Bob's Note Book 8 #118
%R: hornpipe, reel
Z: 2021 John Chambers <jc:trillian.mit.edu>
M: C
L: 1/8
K: G
DE \
| GBdB dgfe | dedB cedc | BGBd gedB | c2A2 AcBA |\
| GBdB dgfe | dedB cedc | BGBd gedc | B2G2 G2 :|
|: cB \
| AGFD BGED | cBAG AGFD | GBAc Bded | c2A2 AcBc |\
| dBdg eceg | dfaf gdBG | cedg fedc | B2G2 G2 :|
%%begintext align
%% Here's a little tune
%% Peter Yarenski can try out on his hammer dulcimer.
%% Pete lives over in Dover, NH, where he is a major factor
%% in the Lamprey River Band. I sure hope you get to
%% hear them play sometime - they really produce good music!
%%endtext

%%sep 1 1 500

%%sep 1 1 500

